X:0358
T:The Auld Man's Mare's dead.
M:C
L:1/8
Q:1/4=116
I: || ::
Z:Jack Campin * www.campin.me.uk * 2009
K:A Dorian
z|EAA>B A2g>e|d<BA>G G>ABG     |cBcd  e>fg>a|g<eg>B A2A||
g|a>bag a>bae|g>ab>a ge d(g/a/)|b>age dega  |g<eg>B A2A:|

